icons/bullseye.svg

<svg xmlns="http://www.w3.org/2000/svg" viewBox="0 0 24 24" fill="currentColor">
  <path d="M12 3.75c-4.55635 0-8.25 3.69365-8.25 8.25 0 4.5563 3.69365 8.25 8.25 8.25 4.5563 0 8.25-3.6937 8.25-8.25 0-4.55635-3.6937-8.25-8.25-8.25ZM2.25 12c0-5.38478 4.36522-9.75 9.75-9.75 5.3848 0 9.75 4.36522 9.75 9.75 0 5.3848-4.3652 9.75-9.75 9.75-5.38478 0-9.75-4.3652-9.75-9.75ZM12 6.75c-2.8995 0-5.25 2.3505-5.25 5.25s2.3505 5.25 5.25 5.25 5.25-2.3505 5.25-5.25S14.8995 6.75 12 6.75ZM5.25 12c0-3.72792 3.02208-6.75 6.75-6.75 3.7279 0 6.75 3.02208 6.75 6.75 0 3.7279-3.0221 6.75-6.75 6.75-3.72792 0-6.75-3.0221-6.75-6.75Zm4.5 0c0-1.2426 1.0074-2.25 2.25-2.25s2.25 1.0074 2.25 2.25-1.0074 2.25-2.25 2.25S9.75 13.2426 9.75 12ZM12 8.25c-2.07107 0-3.75 1.67893-3.75 3.75 0 2.0711 1.67893 3.75 3.75 3.75 2.0711 0 3.75-1.6789 3.75-3.75 0-2.07107-1.6789-3.75-3.75-3.75Z"/>
</svg>

<svg width="24" height="24" viewBox="0 0 24 24" fill="none" xmlns="http://www.w3.org/2000/svg">
<path fill-rule="evenodd" clip-rule="evenodd" d="M12 3.75C7.44365 3.75 3.75 7.44365 3.75 12C3.75 16.5563 7.44365 20.25 12 20.25C16.5563 20.25 20.25 16.5563 20.25 12C20.25 7.44365 16.5563 3.75 12 3.75ZM2.25 12C2.25 6.61522 6.61522 2.25 12 2.25C17.3848 2.25 21.75 6.61522 21.75 12C21.75 17.3848 17.3848 21.75 12 21.75C6.61522 21.75 2.25 17.3848 2.25 12ZM12 6.75C9.1005 6.75 6.75 9.1005 6.75 12C6.75 14.8995 9.1005 17.25 12 17.25C14.8995 17.25 17.25 14.8995 17.25 12C17.25 9.1005 14.8995 6.75 12 6.75ZM5.25 12C5.25 8.27208 8.27208 5.25 12 5.25C15.7279 5.25 18.75 8.27208 18.75 12C18.75 15.7279 15.7279 18.75 12 18.75C8.27208 18.75 5.25 15.7279 5.25 12ZM9.75 12C9.75 10.7574 10.7574 9.75 12 9.75C13.2426 9.75 14.25 10.7574 14.25 12C14.25 13.2426 13.2426 14.25 12 14.25C10.7574 14.25 9.75 13.2426 9.75 12ZM12 8.25C9.92893 8.25 8.25 9.92893 8.25 12C8.25 14.0711 9.92893 15.75 12 15.75C14.0711 15.75 15.75 14.0711 15.75 12C15.75 9.92893 14.0711 8.25 12 8.25Z" fill="black"/>
</svg>
